X: 17328
T: Hide ‘n' Seek With Helen
R: polka
M: 2/4
K: Dmajor
|:A>B dB|d2 d2|ef/d/ BA|FA Bd|
A>B dB|d2 d2|e>f ag|fe dB|
A>B dB|d2 d2|ef/d/ BA|FA Bd|
A>B de|fe dB|d>e fe|1 d2 dG:|2 d2 dg||
|:a>g fe|db ag|a>g fe|df ed|
e>d Be|dB AB|d>e fa|e2 ef|
a>b ag|fe fg|a>g fe|df ed|
f>e fg|af ef|d>e fe|1 d2 ef:|2 d2 dG||

